X: 15
T:Krivo Horo
M:2.2.3.2.2/16
L:1/16
R:kopanica
O:Bulgaria
Z:John Chambers <jc@eddie.mit.edu> http://eddie.mit.edu/~jc/music/
K:AMix
P: A
|: "A"A2de ed2 ded2 | ded2 dc2 cdd2 | "Gm"c2_B2 B3 B2B2 | cddc _B2A G4 |
| "Gm"G2GA _B3 B2B2 | cdd2  c2_B Bc3 | c2_Bc B2A "A"A4 | "Gm"A_BG2 "A"A3
 A4 |
| "Gm"G2A_B B3 B2B2 | cdde c2_B Bc2 | "Gm"c2_Bc B2A "A"A4 | "Gm"A_BG2 "A
"A3 A4:|
P: B
|: c_BAG A2E FGA2 | AGA2 AG2 A2A2 | c_BAG A2E FGA2 | "Gm"FGA2 AG2 "A"A2A
2 :|
P: C
|: "A"FGA2 GFE FGA2 | A2c2 c_BB AGA2 | A2GF EFG A2A2 | "Gm"c2_Bc BAG "A"
A2A2  :|
P: D
|: "Gm"c2_Bc BAG "A"ABcd | "Gm"c2_Bc BAG "A"A2e2 | "Gm"c2_Bc BAG "A"ABcd
 | "Gm"c2_Bc BAG "A"A2A2 :|
%%text ABCD
P: E
K: G
|: "G"d2dB c2B B2d2 | d2dB c2B BGAG | "G"d2dB c2B B2d2 | d2dB c2B BGA2 :
|
P: F
|: "G"c2B2 c2B B2d2 | c2B2 dcB BGAG | "G"c2B2 c2B B2d2 | c2B2 dcB BGA2 :
|
P: G
|: "Am"E4 A2G FGA2- | AEFG A2G "Em"FEB2 |1 "Am"E4 A2G FGA2- | AEFG A2G "
Em"FDE :|2 "Am"E4 A2G FGA_B | "A"^c2_B2 cBA AGA2 |]
P: H
K: AMix
|: "A"c2_B2 cBA AGAd | c2_B2 cBA AG"3x"A2 :| "A"c2_B2 cBA AGAd | c2_B2 c
BA GA=B=c |]
P: I
K: C
|: "B"^d2c2 dcB BABe | ^d2c2 dcB BAB2 | ^d2c2 dcB BABe | ^d2c2 dcB BAB2 
:|
W:
W: From "Falaleiro" http://home.t-online.de/home/pheld/homepage.htm

